docs/assets/image/modelling-knowledge1.svg

<?xml version="1.0" encoding="utf-8"?>
<!-- Generator: Adobe Illustrator 21.1.0, SVG Export Plug-In . SVG Version: 6.00 Build 0)  -->
<svg version="1.1" id="Ebene_1" xmlns="http://www.w3.org/2000/svg" xmlns:xlink="http://www.w3.org/1999/xlink" x="0px" y="0px"
	 width="170.1px" height="170.1px" viewBox="0 0 170.1 170.1" style="enable-background:new 0 0 170.1 170.1;" xml:space="preserve"
	>
<style type="text/css">
	.st0{fill:#ADC913;}
</style>
<g>
	<path class="st0" d="M28.6,99.5c7.5,0,13.5-5.7,14.4-12.8h12.1c0.4,7.3,3.2,13.9,7.6,18.8l-14.2,14.2c-6.6-5.3-16.5-5-22.6,1.1
		c-6.6,6.6-6.6,17.2,0,24c3.4,3.4,7.6,5,12.1,5c4.3,0,8.7-1.6,11.9-5c6.2-6.2,6.6-16,1.1-22.6l14.2-14.2c4.8,4.3,11,6.9,17.8,7.5
		v11.7c-7.3,0.9-12.8,7.1-12.8,14.4c0,8,6.6,14.6,14.6,14.6s14.6-6.6,14.6-14.6c0-7.5-5.7-13.5-12.8-14.4v-11.7
		c7.3-0.4,13.9-3,19-7.6l14.2,14.2c-5.3,6.6-5,16.5,1.1,22.6c3.2,3.2,7.5,5,11.9,5l0,0c4.4,0,8.7-1.8,11.9-5c6.6-6.6,6.6-17.4,0-24
		c-3.2-3.2-7.5-5-11.9-5c-3.9,0-7.6,1.4-10.7,3.7l-14.2-14.2c4.4-5,7.3-11.2,7.6-18.1h11.4c0.9,7.3,7.1,12.8,14.4,12.8
		c8,0,14.6-6.6,14.6-14.6s-6.6-14.6-14.6-14.6c-7.5,0-13.5,5.7-14.4,12.8h-11.4c-0.4-7.1-3.2-13.5-7.6-18.5l14.2-14.2
		c3,2.5,6.9,3.7,10.7,3.7c4.3,0,8.7-1.6,11.9-5c6.6-6.6,6.6-17.2,0-24c-6.6-6.6-17.4-6.6-24,0c-6.2,6.2-6.6,16-1.1,22.6l-14.2,14.2
		c-5-4.4-11.4-7.1-18.3-7.5V42.8c7.3-0.9,12.8-7.1,12.8-14.4c0-8-6.6-14.6-14.6-14.6s-14.6,6.6-14.6,14.6c0,7.5,5.7,13.5,12.8,14.4
		v12.1c-6.9,0.4-13.3,3.2-18.3,7.5L51,48.1c5.3-6.6,5-16.5-1.1-22.6c-6.6-6.6-17.2-6.6-24,0c-6.6,6.6-6.6,17.4,0,24
		c3.4,3.6,7.6,5.3,12.1,5.3c3.7,0,7.6-1.2,10.7-3.7l14.2,14.2c-4.3,4.8-7.1,11-7.6,17.8H43.2c-0.9-7.3-7.1-12.8-14.4-12.8
		c-8,0-14.6,6.6-14.6,14.6C14,93,20.6,99.5,28.6,99.5z M47.6,142.2c-5.2,5.2-13.7,5.2-18.8,0c-5.2-5.2-5.3-13.7,0-18.8
		c2.7-2.7,6-3.9,9.4-3.9c3.4,0,6.9,1.2,9.4,3.9C52.8,128.5,52.8,137.1,47.6,142.2z M96,141.7c0,6-5,11-11,11s-11-5-11-11
		c0-6,5-11,11-11S96,135.6,96,141.7z M133,119.3L133,119.3c3.6,0,6.9,1.4,9.4,3.9c5.2,5.2,5.2,13.7,0,18.8c-2.5,2.5-5.9,3.9-9.4,3.9
		l0,0c-3.6,0-6.9-1.4-9.4-3.9c-5.2-5.2-5.2-13.7,0-18.8C126,120.7,129.2,119.3,133,119.3z M141.7,74.3c6,0,11,5,11,11
		c0,6-5,11-11,11c-6,0-11-5-11-11C130.7,79.3,135.6,74.3,141.7,74.3z M123.4,28.4c2.7-2.7,6-3.9,9.4-3.9c3.4,0,6.9,1.2,9.4,3.9
		c5.2,5.2,5.3,13.7,0,18.8c-5.2,5.2-13.7,5.2-18.8,0C118.2,42.1,118.2,33.6,123.4,28.4z M74.3,28.6c0-6,5-11,11-11c6,0,11,5,11,11
		s-5,11-11,11C79.3,39.6,74.3,34.6,74.3,28.6z M28.6,47.4c-5.2-5.2-5.2-13.7,0-18.8c2.7-2.7,6-3.9,9.4-3.9s6.8,1.2,9.4,3.9
		c5.2,5.2,5.2,13.7,0,18.8S33.7,52.6,28.6,47.4z M85.5,58.6c14.8,0,26.7,11.9,26.9,26.5c0,0.2,0,0.2,0,0.4v0.2
		c-0.2,14.6-12.1,26.3-26.9,26.3s-26.9-11.9-26.9-26.7S70.5,58.6,85.5,58.6z M28.6,73.7c6,0,11,5,11,11s-5,11-11,11s-11-4.8-11-11
		S22.5,73.7,28.6,73.7z"/>
	<path class="st0" d="M101,89.6V86H90.6c-0.2,0.9-0.5,1.6-0.9,2.3l7.3,7.3l2.5-2.5v6.4h-6.4l2.5-2.5l-7.3-7.3
		c-0.7,0.5-1.4,0.9-2.3,0.9V101h3.6l-4.4,4.4l-4.4-4.4h3.6V90.6c-0.9-0.2-1.6-0.5-2.3-0.9L74.5,97l2.5,2.5h-6.4v-6.4l2.5,2.5
		l7.5-7.3c-0.5-0.7-0.9-1.4-0.9-2.3H69.1v3.6l-4.4-4.4l4.4-4.4v3.6h10.3c0.2-0.9,0.5-1.6,1.1-2.3L73,74.6l-2.5,2.5v-6.4h6.4
		l-2.5,2.5l7.3,7.3c0.7-0.5,1.6-0.9,2.3-0.9V69.3h-3.6l4.4-4.4l4.4,4.4h-3.6v10.3c0.9,0.2,1.6,0.5,2.3,0.9l7.3-7.3L93,70.7h6.4v6.4
		l-2.5-2.5l-7.3,7.3c0.5,0.7,0.9,1.4,0.9,2.3h10.3v-3.6l4.6,4.4L101,89.6z"/>
</g>
</svg>

<?xml version="1.0" encoding="UTF-8" standalone="no"?>
<!DOCTYPE svg PUBLIC "-//W3C//DTD SVG 1.1//EN" "http://www.w3.org/Graphics/SVG/1.1/DTD/svg11.dtd">
<svg width="100%" height="100%" viewBox="0 0 171 171" version="1.1" xmlns="http://www.w3.org/2000/svg" xmlns:xlink="http://www.w3.org/1999/xlink" xml:space="preserve" xmlns:serif="http://www.serif.com/" style="fill-rule:evenodd;clip-rule:evenodd;stroke-linejoin:round;stroke-miterlimit:2;">
    <g>
        <path d="M28.6,99.5C36.1,99.5 42.1,93.8 43,86.7L55.1,86.7C55.5,94 58.3,100.6 62.7,105.5L48.5,119.7C41.9,114.4 32,114.7 25.9,120.8C19.3,127.4 19.3,138 25.9,144.8C29.3,148.2 33.5,149.8 38,149.8C42.3,149.8 46.7,148.2 49.9,144.8C56.1,138.6 56.5,128.8 51,122.2L65.2,108C70,112.3 76.2,114.9 83,115.5L83,127.2C75.7,128.1 70.2,134.3 70.2,141.6C70.2,149.6 76.8,156.2 84.8,156.2C92.8,156.2 99.4,149.6 99.4,141.6C99.4,134.1 93.7,128.1 86.6,127.2L86.6,115.5C93.9,115.1 100.5,112.5 105.6,107.9L119.8,122.1C114.5,128.7 114.8,138.6 120.9,144.7C124.1,147.9 128.4,149.7 132.8,149.7C137.2,149.7 141.5,147.9 144.7,144.7C151.3,138.1 151.3,127.3 144.7,120.7C141.5,117.5 137.2,115.7 132.8,115.7C128.9,115.7 125.2,117.1 122.1,119.4L107.9,105.2C112.3,100.2 115.2,94 115.5,87.1L126.9,87.1C127.8,94.4 134,99.9 141.3,99.9C149.3,99.9 155.9,93.3 155.9,85.3C155.9,77.3 149.3,70.7 141.3,70.7C133.8,70.7 127.8,76.4 126.9,83.5L115.5,83.5C115.1,76.4 112.3,70 107.9,65L122.1,50.8C125.1,53.3 129,54.5 132.8,54.5C137.1,54.5 141.5,52.9 144.7,49.5C151.3,42.9 151.3,32.3 144.7,25.5C138.1,18.9 127.3,18.9 120.7,25.5C114.5,31.7 114.1,41.5 119.6,48.1L105.4,62.3C100.4,57.9 94,55.2 87.1,54.8L87.1,42.8C94.4,41.9 99.9,35.7 99.9,28.4C99.9,20.4 93.3,13.8 85.3,13.8C77.3,13.8 70.7,20.4 70.7,28.4C70.7,35.9 76.4,41.9 83.5,42.8L83.5,54.9C76.6,55.3 70.2,58.1 65.2,62.4L51,48.1C56.3,41.5 56,31.6 49.9,25.5C43.3,18.9 32.7,18.9 25.9,25.5C19.3,32.1 19.3,42.9 25.9,49.5C29.3,53.1 33.5,54.8 38,54.8C41.7,54.8 45.6,53.6 48.7,51.1L62.9,65.3C58.6,70.1 55.8,76.3 55.3,83.1L43.2,83.1C42.3,75.8 36.1,70.3 28.8,70.3C20.8,70.3 14.2,76.9 14.2,84.9C14,93 20.6,99.5 28.6,99.5ZM47.6,142.2C42.4,147.4 33.9,147.4 28.8,142.2C23.6,137 23.5,128.5 28.8,123.4C31.5,120.7 34.8,119.5 38.2,119.5C41.6,119.5 45.1,120.7 47.6,123.4C52.8,128.5 52.8,137.1 47.6,142.2ZM96,141.7C96,147.7 91,152.7 85,152.7C79,152.7 74,147.7 74,141.7C74,135.7 79,130.7 85,130.7C91,130.7 96,135.6 96,141.7ZM133,119.3C136.6,119.3 139.9,120.7 142.4,123.2C147.6,128.4 147.6,136.9 142.4,142C139.9,144.5 136.5,145.9 133,145.9C129.4,145.9 126.1,144.5 123.6,142C118.4,136.8 118.4,128.3 123.6,123.2C126,120.7 129.2,119.3 133,119.3ZM141.7,74.3C147.7,74.3 152.7,79.3 152.7,85.3C152.7,91.3 147.7,96.3 141.7,96.3C135.7,96.3 130.7,91.3 130.7,85.3C130.7,79.3 135.6,74.3 141.7,74.3ZM123.4,28.4C126.1,25.7 129.4,24.5 132.8,24.5C136.2,24.5 139.7,25.7 142.2,28.4C147.4,33.6 147.5,42.1 142.2,47.2C137,52.4 128.5,52.4 123.4,47.2C118.2,42.1 118.2,33.6 123.4,28.4ZM74.3,28.6C74.3,22.6 79.3,17.6 85.3,17.6C91.3,17.6 96.3,22.6 96.3,28.6C96.3,34.6 91.3,39.6 85.3,39.6C79.3,39.6 74.3,34.6 74.3,28.6ZM28.6,47.4C23.4,42.2 23.4,33.7 28.6,28.6C31.3,25.9 34.6,24.7 38,24.7C41.4,24.7 44.8,25.9 47.4,28.6C52.6,33.8 52.6,42.3 47.4,47.4C42.2,52.5 33.7,52.6 28.6,47.4ZM85.5,58.6C100.3,58.6 112.2,70.5 112.4,85.1L112.4,85.7C112.2,100.3 100.3,112 85.5,112C70.7,112 58.6,100.1 58.6,85.3C58.6,70.5 70.5,58.6 85.5,58.6ZM28.6,73.7C34.6,73.7 39.6,78.7 39.6,84.7C39.6,90.7 34.6,95.7 28.6,95.7C22.6,95.7 17.6,90.9 17.6,84.7C17.6,78.5 22.5,73.7 28.6,73.7Z" style="fill:rgb(161,191,36);fill-rule:nonzero;"/>
        <path d="M101,89.6L101,86L90.6,86C90.4,86.9 90.1,87.6 89.7,88.3L97,95.6L99.5,93.1L99.5,99.5L93.1,99.5L95.6,97L88.3,89.7C87.6,90.2 86.9,90.6 86,90.6L86,101L89.6,101L85.2,105.4L80.8,101L84.4,101L84.4,90.6C83.5,90.4 82.8,90.1 82.1,89.7L74.5,97L77,99.5L70.6,99.5L70.6,93.1L73.1,95.6L80.6,88.3C80.1,87.6 79.7,86.9 79.7,86L69.1,86L69.1,89.6L64.7,85.2L69.1,80.8L69.1,84.4L79.4,84.4C79.6,83.5 79.9,82.8 80.5,82.1L73,74.6L70.5,77.1L70.5,70.7L76.9,70.7L74.4,73.2L81.7,80.5C82.4,80 83.3,79.6 84,79.6L84,69.3L80.4,69.3L84.8,64.9L89.2,69.3L85.6,69.3L85.6,79.6C86.5,79.8 87.2,80.1 87.9,80.5L95.2,73.2L93,70.7L99.4,70.7L99.4,77.1L96.9,74.6L89.6,81.9C90.1,82.6 90.5,83.3 90.5,84.2L100.8,84.2L100.8,80.6L105.4,85L101,89.6Z" style="fill:rgb(161,191,36);fill-rule:nonzero;"/>
    </g>
</svg>
